icons/arrow-crash-left.svg

<svg width="24" height="25" viewBox="0 0 24 25" fill="none" xmlns="http://www.w3.org/2000/svg">
<path fill-rule="evenodd" clip-rule="evenodd" d="M6.25391 12.5C6.25391 12.0858 6.58969 11.75 7.00391 11.75L17.0039 11.75C17.4181 11.75 17.7539 12.0858 17.7539 12.5C17.7539 12.9142 17.4181 13.25 17.0039 13.25L7.00391 13.25C6.58969 13.25 6.25391 12.9142 6.25391 12.5Z" fill="black"/>
<path fill-rule="evenodd" clip-rule="evenodd" d="M7.75323 12.5691L11.5466 16.2627C11.8434 16.5517 11.8498 17.0265 11.5608 17.3233C11.2718 17.62 10.797 17.6264 10.5002 17.3374L6.69306 13.6304C6.10017 13.0375 6.10021 12.0626 6.69311 11.4697L6.70018 11.4626L10.5002 7.7627C10.797 7.47373 11.2718 7.48006 11.5608 7.77684C11.8498 8.07361 11.8434 8.54844 11.5466 8.8374L7.75323 12.531C7.75187 12.5327 7.74844 12.5382 7.74844 12.55C7.74844 12.5618 7.75187 12.5674 7.75323 12.5691Z" fill="black"/>
<path fill-rule="evenodd" clip-rule="evenodd" d="M6.99609 19.25C6.58188 19.25 6.24609 18.9142 6.24609 18.5L6.24609 6.5C6.24609 6.08579 6.58188 5.75 6.99609 5.75C7.41031 5.75 7.74609 6.08579 7.74609 6.5L7.74609 18.5C7.74609 18.9142 7.41031 19.25 6.99609 19.25Z" fill="black"/>
</svg>

<svg xmlns="http://www.w3.org/2000/svg" fill="none" viewBox="0 0 24 25">
  <path fill="#000" fill-rule="evenodd" d="M6.254 12.5a.75.75 0 0 1 .75-.75h10a.75.75 0 0 1 0 1.5h-10a.75.75 0 0 1-.75-.75Z" clip-rule="evenodd"/>
  <path fill="#000" fill-rule="evenodd" d="m7.753 12.57 3.794 3.693a.75.75 0 1 1-1.047 1.074L6.693 13.63a1.535 1.535 0 0 1 0-2.16l.007-.007 3.8-3.7a.75.75 0 1 1 1.047 1.074l-3.794 3.694c-.001.002-.005.007-.005.019s.004.017.005.02Z" clip-rule="evenodd"/>
  <path fill="#000" fill-rule="evenodd" d="M6.996 19.25a.75.75 0 0 1-.75-.75v-12a.75.75 0 0 1 1.5 0v12a.75.75 0 0 1-.75.75Z" clip-rule="evenodd"/>
</svg>
